T: Twenty Men From Dublin
M: 4/4
L: 1/8
K: Cmaj
|: G3A G2c2 | e3d c4 | A3B/c/ dcBA | G8 |
G3A G2c2 | e3d c4 | d3e fdBG |1 c8 :|2 c3G/A/ Bcde |]
|: f2e2 d2G2 | e2d2 c4 | A3B/c/ dcBA | G8 |
G3A G2c2 | e3d c4 | d3e fdBG | c8 :|
